src/Soccer/Services/Soccer.API/_Shared/App_Data/SvgFiles/jersey.svg

<svg  xmlns="http://www.w3.org/2000/svg">
    <path d="M15.9862 0.809249C16.9671 0.782274 19.1145 0.026975 19.1145 0.026975L26.0073 1.45665L31.9988 6.93256L28.7645 11.5723L24.7878 9.49518C24.2046 11.9499 24.7348 27.0559 24.7348 27.0559C21.9777 27.9191 15.9862 28 15.9862 28C15.9862 28 9.99467 27.9191 7.23752 27.0559C7.23752 27.0559 7.76774 11.9499 7.1845 9.49518L3.20784 11.5723L0 6.90559L5.9915 1.42967L12.8844 0C12.8844 0.026975 15.0053 0.782274 15.9862 0.809249Z"/>
</svg>

<svg xmlns="http://www.w3.org/2000/svg"><path d="M15.986.81c.981-.028 3.128-.783 3.128-.783l6.893 1.43L32 6.933l-3.234 4.64-3.977-2.078c-.583 2.455-.053 17.56-.053 17.56-2.757.864-8.749.945-8.749.945s-5.991-.08-8.748-.944c0 0 .53-15.106-.054-17.56l-3.976 2.076L0 6.906 5.992 1.43 12.884 0c0 .027 2.121.782 3.102.81z"/></svg>
